X: 818
T: The Yellow Flail
N:"Collected by F.O'Neill"
B:O'Neill's 818
Z:Transcribed by Dan G. Petersen, dangp@post6.tele.dk
M:6/8
L:1/8
K:G
d/c/|BAG GFG|D2E {G}FEF|GAG GAB|{d}cAG FGA|
BcB {c}BAG|ABA ABc|dcA {B}AGF|G3 G2:|
D|T(GFG) BAG|GFG AFD|T(GFG) BGB|{d}c2A F2A|
T(GFG) BAG|GFG ABc|dcA {B}AGF|G3 G2:|
D|G2A B2c|ded d2c|{c}BAG FGA|cAG F2A|
BcB {c}BAG|ABA ABc|dcA {B}AGF|G3 G2:|


